X:0360
T:Matthew Briggs.
N:Drummond Castle
M:6/8
L:1/8
Q:3/8=112
I: || ::
Z:Jack Campin * www.campin.me.uk * 2009
K:A Dorian
ABA a3 |gef  g3  | cdc   edc |B2g dBG|ABA a3 |gef g3 |e3 deg|edB A3:|
cdc efe|d2d (ded)|(cdc) (edc)|B2g dBG|cdc edc|deg a2g|e3 deg|edB A3:|

